resources/icons/16px/variable.svg

<svg xmlns="http://www.w3.org/2000/svg" viewBox="0 0 16 16">
  <path d="M3.94 3.15c.47-.66 1.05-1.24 1.76-1.73l.13-.4c-1.11.45-2.05 1.01-2.84 1.7-1.02.88-1.8 1.9-2.32 3.05C.22 6.76 0 7.75 0 8.75c0 1.75.66 3.5 1.99 5.25l.13-.42c-.39-.94-.59-1.82-.59-2.63 0-1.28.22-2.64.67-4.1.45-1.45 1.03-2.69 1.74-3.7m7.51 6.41-.27-.15c-.3.41-.52.66-.66.77-.09.06-.21.1-.33.1-.15 0-.3-.1-.45-.28-.25-.33-.59-1.22-1.01-2.69.38-.65.69-1.08.95-1.28.19-.15.39-.22.59-.22.08 0 .22.03.43.08.2.06.39.08.54.08.22 0 .4-.07.54-.22.15-.15.22-.34.22-.57 0-.25-.07-.45-.22-.59-.15-.15-.35-.22-.63-.22-.24 0-.47.06-.69.17-.21.11-.49.36-.82.74-.25.28-.61.78-1.1 1.48a6.7 6.7 0 0 0-.97-2.38l-2.59.44-.05.27c.19-.04.36-.06.49-.06.26 0 .47.11.64.33q.39.51 1.11 3.12c-.37.49-.63.81-.77.96-.23.24-.41.4-.56.47q-.165.09-.39.09c-.11 0-.29-.06-.53-.18-.17-.07-.32-.11-.45-.11-.25 0-.46.08-.62.24s-.24.37-.24.61c0 .23.08.42.23.57s.35.22.61.22c.25 0 .48-.05.7-.15s.49-.32.82-.65.78-.86 1.36-1.59c.22.69.42 1.19.58 1.51.16.31.35.54.56.68s.47.21.79.21q.465 0 .93-.33c.4-.29.82-.77 1.26-1.47m2.56-8.54-.12.42c.39.95.59 1.82.59 2.64 0 1.09-.17 2.26-.5 3.51-.26.96-.6 1.87-1.02 2.71-.42.85-.82 1.51-1.21 1.98q-.585.72-1.44 1.32l-.14.4c1.11-.45 2.05-1.02 2.84-1.7 1.03-.89 1.81-1.91 2.33-3.05q.66-1.485.66-3c0-1.73-.66-3.48-1.99-5.23"/>
</svg>

<?xml version="1.0" encoding="utf-8"?>
<!-- Generator: Adobe Illustrator 18.0.0, SVG Export Plug-In . SVG Version: 6.00 Build 0)  -->
<svg version="1.1" id="Layer_1" xmlns="http://www.w3.org/2000/svg" xmlns:xlink="http://www.w3.org/1999/xlink" x="0px" y="0px"
	 viewBox="0 0 16 16" enable-background="new 0 0 16 16" xml:space="preserve">
<g id="variable_1_">
	<g>
		<path fill-rule="evenodd" clip-rule="evenodd" d="M3.94,3.15C4.41,2.49,4.99,1.91,5.7,1.42l0.13-0.4
			c-1.11,0.45-2.05,1.01-2.84,1.7C1.97,3.6,1.19,4.62,0.67,5.77C0.22,6.76,0,7.75,0,8.75C0,10.5,0.66,12.25,1.99,14l0.13-0.42
			c-0.39-0.94-0.59-1.82-0.59-2.63c0-1.28,0.22-2.64,0.67-4.1C2.65,5.4,3.23,4.16,3.94,3.15z M11.45,9.56l-0.27-0.15
			c-0.3,0.41-0.52,0.66-0.66,0.77c-0.09,0.06-0.21,0.1-0.33,0.1c-0.15,0-0.3-0.1-0.45-0.28C9.49,9.67,9.15,8.78,8.73,7.31
			c0.38-0.65,0.69-1.08,0.95-1.28c0.19-0.15,0.39-0.22,0.59-0.22c0.08,0,0.22,0.03,0.43,0.08c0.2,0.06,0.39,0.08,0.54,0.08
			c0.22,0,0.4-0.07,0.54-0.22c0.15-0.15,0.22-0.34,0.22-0.57c0-0.25-0.07-0.45-0.22-0.59c-0.15-0.15-0.35-0.22-0.63-0.22
			c-0.24,0-0.47,0.06-0.69,0.17c-0.21,0.11-0.49,0.36-0.82,0.74c-0.25,0.28-0.61,0.78-1.1,1.48C8.37,5.9,8.04,5.1,7.57,4.38
			L4.98,4.82L4.93,5.09c0.19-0.04,0.36-0.06,0.49-0.06c0.26,0,0.47,0.11,0.64,0.33C6.32,5.7,6.69,6.74,7.17,8.48
			C6.8,8.97,6.54,9.29,6.4,9.44c-0.23,0.24-0.41,0.4-0.56,0.47C5.73,9.97,5.6,10,5.45,10c-0.11,0-0.29-0.06-0.53-0.18
			C4.75,9.75,4.6,9.71,4.47,9.71c-0.25,0-0.46,0.08-0.62,0.24c-0.16,0.16-0.24,0.37-0.24,0.61c0,0.23,0.08,0.42,0.23,0.57
			c0.15,0.15,0.35,0.22,0.61,0.22c0.25,0,0.48-0.05,0.7-0.15c0.22-0.1,0.49-0.32,0.82-0.65c0.33-0.33,0.78-0.86,1.36-1.59
			c0.22,0.69,0.42,1.19,0.58,1.51c0.16,0.31,0.35,0.54,0.56,0.68c0.21,0.14,0.47,0.21,0.79,0.21c0.31,0,0.62-0.11,0.93-0.33
			C10.59,10.74,11.01,10.26,11.45,9.56z M14.01,1.02l-0.12,0.42c0.39,0.95,0.59,1.82,0.59,2.64c0,1.09-0.17,2.26-0.5,3.51
			c-0.26,0.96-0.6,1.87-1.02,2.71c-0.42,0.85-0.82,1.51-1.21,1.98c-0.39,0.48-0.87,0.92-1.44,1.32L10.17,14
			c1.11-0.45,2.05-1.02,2.84-1.7c1.03-0.89,1.81-1.91,2.33-3.05C15.78,8.26,16,7.26,16,6.25C16,4.52,15.34,2.77,14.01,1.02z"/>
	</g>
</g>
</svg>
